assets/img/pink border.svg

<svg height="150" preserveAspectRatio="xMidYMid meet" viewBox="0 0 450 112.499997" width="600" xmlns="http://www.w3.org/2000/svg" xmlns:xlink="http://www.w3.org/1999/xlink" zoomAndPan="magnify"><clipPath id="a"><path d="m408 34h41.003906v44h-41.003906zm0 0"/></clipPath><path d="m5.90625 81.949219c26.671875-13.832031 57.789062-17.015625 87.363281-17.742188 31.84375-.820312 63.597657 1.273438 95.257813 4.183594 32.023437 3.003906 63.957031 6.734375 96.074218 9.007813 15.964844 1.09375 32.023438 1.730468 48.082032 1.820312 15.058594.089844 30.300781.179688 45.359375-1.636719 15.148437-1.820312 30.300781-6.097656 41.910156-16.558593 10.164063-9.191407 17.511719-23.203126 14.699219-37.121094-1.179688-5.824219-10.253906-4.460938-10.253906 1.363281.09375 12.375-4.714844 22.835937-14.242188 30.660156-10.703125 8.828125-25.039062 11.917969-38.375 13.558594-30.300781 3.546875-61.144531 2.363281-91.535156.273437-61.691406-4.367187-123.199219-14.46875-185.160156-12.285156-31.570313 1-63.503907 4.640625-90.992188 21.382813-1.996094 1.179687-.273438 4.183593 1.8125 3.09375zm0 0" fill="#ff66c4"/><path d="m17.882812 61.75c27.035157-9.917969 54.976563-12.28125 83.550782-12.464844 1.542968 0 2.089844-2.636718.363281-2.820312-28.574219-4.277344-58.332031 2.546875-84.550781 14.101562-.542969.273438-.089844 1.457032.636718 1.183594zm0 0" fill="#ff66c4"/><g clip-path="url(#a)"><path d="m409.339844 77.671875c10.433594-1.457031 20.050781-6.460937 27.308594-14.011719 3.71875-3.820312 6.894531-8.1875 9.070312-13.011718 1.816406-3.820313 5.171875-10.644532 2.449219-14.554688-1.269531-1.820312-3.445313-2.09375-5.078125-.636719-3.085938 2.636719-2.632813 8.640625-3.902344 12.464844-1.453125 4.367187-3.539062 8.460937-6.167969 12.191406-5.898437 8.097657-14.335937 14.011719-23.949219 16.648438-.636718.089843-.363281 1 .269532.910156zm0 0" fill="#ff66c4"/></g></svg>

<svg xmlns="http://www.w3.org/2000/svg" xmlns:xlink="http://www.w3.org/1999/xlink" width="600" zoomAndPan="magnify" viewBox="0 0 450 112.499997" height="150" preserveAspectRatio="xMidYMid meet" version="1.0"><defs><clipPath id="id1"><path d="M 408 34 L 449.003906 34 L 449.003906 78 L 408 78 Z M 408 34 " clip-rule="nonzero"/></clipPath></defs><path fill="#ff66c4" d="M 5.90625 81.949219 C 32.578125 68.117188 63.695312 64.933594 93.269531 64.207031 C 125.113281 63.386719 156.867188 65.480469 188.527344 68.390625 C 220.550781 71.394531 252.484375 75.125 284.601562 77.398438 C 300.566406 78.492188 316.625 79.128906 332.683594 79.21875 C 347.742188 79.308594 362.984375 79.398438 378.042969 77.582031 C 393.191406 75.761719 408.34375 71.484375 419.953125 61.023438 C 430.117188 51.832031 437.464844 37.820312 434.652344 23.902344 C 433.472656 18.078125 424.398438 19.441406 424.398438 25.265625 C 424.492188 37.640625 419.683594 48.101562 410.15625 55.925781 C 399.453125 64.753906 385.117188 67.84375 371.78125 69.484375 C 341.480469 73.03125 310.636719 71.847656 280.246094 69.757812 C 218.554688 65.390625 157.046875 55.289062 95.085938 57.472656 C 63.515625 58.472656 31.582031 62.113281 4.09375 78.855469 C 2.097656 80.035156 3.820312 83.039062 5.90625 81.949219 Z M 5.90625 81.949219 " fill-opacity="1" fill-rule="nonzero"/><path fill="#ff66c4" d="M 17.882812 61.75 C 44.917969 51.832031 72.859375 49.46875 101.433594 49.285156 C 102.976562 49.285156 103.523438 46.648438 101.796875 46.464844 C 73.222656 42.1875 43.464844 49.011719 17.246094 60.566406 C 16.703125 60.839844 17.15625 62.023438 17.882812 61.75 Z M 17.882812 61.75 " fill-opacity="1" fill-rule="nonzero"/><g clip-path="url(#id1)"><path fill="#ff66c4" d="M 409.339844 77.671875 C 419.773438 76.214844 429.390625 71.210938 436.648438 63.660156 C 440.367188 59.839844 443.542969 55.472656 445.71875 50.648438 C 447.535156 46.828125 450.890625 40.003906 448.167969 36.09375 C 446.898438 34.273438 444.722656 34 443.089844 35.457031 C 440.003906 38.09375 440.457031 44.097656 439.1875 47.921875 C 437.734375 52.289062 435.648438 56.382812 433.019531 60.113281 C 427.121094 68.210938 418.683594 74.125 409.070312 76.761719 C 408.433594 76.851562 408.707031 77.761719 409.339844 77.671875 Z M 409.339844 77.671875 " fill-opacity="1" fill-rule="nonzero"/></g></svg>
